icons/hicolor/scalable/actions/bhc-polkit-error-symbolic.svg

<svg height="16" viewBox="0 0 16 16" width="16" xmlns="http://www.w3.org/2000/svg"><path class="error" d="m7.949686 6.6062267c-2.4929549 0-4.5102213 2.0871718-4.5102213 4.6665163 0 2.579345 2.0172664 4.666516 4.5102213 4.666516 2.492955 0 4.510222-2.087171 4.510222-4.666516 0-2.5793445-2.017267-4.6665163-4.510222-4.6665163zm-2.2551106 3.4998863h4.5102216c.625441 0 1.127555.519514 1.127555 1.16663 0 .647115-.502114 1.166628-1.127555 1.166628h-4.5102216c-.6254415 0-1.1275554-.519513-1.1275554-1.166628 0-.647116.5021139-1.16663 1.1275554-1.16663zm0 0" fill="#e01b24" stroke-width="1.14693"/><path d="m1.5546875.1171875-.1699219.05273438c-.2881123.08996191-.46690408.19868388-.6816406.41210937-.16403048.16302764-.20992653.22660498-.296875.40625-.18395572.38007295-.17419805.13905385-.17382812 3.84960935.0003238 3.2244184.00068716 3.3029318.04492187 3.4785156.05704392.2264118.1311337.3861445.25976563.5664063.20122961.2819977.50825692.4977552.84765622.5957031.0845456.0243987.6524343.0341271 1.9589844.0390625a4.9622278 4.9622278 0 0 1 .5253906-1.0390625c-1.2500907-.0038868-2.1687455-.0094092-2.2050781-.0175781-.1215081-.027323-.2745491-.1601754-.328125-.2851563-.041254-.0962099-.0410156-.2110026-.0410156-3.3476562 0-3.1366534-.0002264-3.2533985.0410156-3.3496094.050966-.118898.1952407-.2488503.3164063-.2851562.1144802-.034343 11.6951502-.0361791 11.8183592-.0019532.044297.0123046.123461.0587317.175781.1035157.172878.1479802.171637.1400758.185547.9003906.01167.6387666.01623.6830545.0625.7714844.026997.0516028.086553.1259315.132813.1640625.133017.1096441.249681.1386718.564453.1386718h.279297v1.5585938 1.5585938h-.300782c-.252098.0004119-.31477.008116-.40039.046875-.126072.0570684-.215524.140253-.277344.2578124-.04429.0842315-.048857.1362079-.060547.7695313l-.011719.6796875-.060546.0917969c-.081081.1224519-.188647.2019388-.3125.2304687-.026257.006045-.588383.01013-1.345704.0136719a4.9622278 4.9622278 0 0 1 .533204 1.0429687c.854614-.0051473 1.006706-.0143241 1.089843-.0371093.432704-.1185709.802142-.4185545.998047-.8085938.127854-.2545377.151443-.3738815.164063-.8144531l.011719-.4121094h.300781c.252887 0 .318156-.007575.410156-.046875.136636-.0583629.223497-.1397748.279297-.2617187.04176-.0913929.042969-.1736657.042969-2.3105469 0-2.4444031.008024-2.3007726-.142579-2.4589844-.127513-.1339531-.225777-.1621094-.582031-.1621094h-.314453v-.3105468c-.000548-.3801437-.027609-.5736034-.105469-.7695313-.189997-.47812137-.565631-.81575653-1.080078-.96874998-.128597-.03824996-.443348-.04101562-6.144531-.04101562zm3.8339844 1.4394531c-.0531055.004543-.0896118.0231304-.1054688.0527344-.013316.0248492-.0474309.0819533-.0761719.1289062-.0562559.0919029-.0912556.1561445-.2070312.3671876-.040894.0745485-.0877076.1512878-.1035156.1699218-.015808.0186417-.0459763.0697923-.0664063.1132813-.020428.043486-.0653445.1292833-.1015625.1914062-.0362158.0621229-.0872973.1534251-.1132812.203125-.0259833.0496983-.0780254.14056-.1152344.2011719-.037212.0606068-.1040855.1774877-.1484375.2597656-.0443628.0822738-.0996439.1760044-.1230469.2089844s-.0429687.0661688-.0429687.0742188c0 .0079971-.0335558.0681775-.0742188.1328124-.0406646.064632-.0875506.1427622-.1035156.1738282-.015965.0310614-.057738.1077989-.09375.1699218-.0360118.0621229-.0848239.1479173-.1074219.1914063-.0225978.043486-.0705169.1237756-.1074218.1796875-.0369062.0559096-.0875623.1436594-.1132813.1933594-.0257265.0496982-.0740689.1403049-.1074219.2011718-.0732699.1336993-.0739987.1426915-.0117187.2089844.0486237.0517551.0538492.0527344.5761719.0527344.4501407 0 .5298296.0040502.5410156.0332031.00719.018791.0024023.047124-.0097656.0625-.012167.0153723-.0332072.1121148-.0488282.2148438-.015622.1027271-.037655.1915756-.046875.1972656-.00922.005691-.0118493.0369304-.0058594.0683594.006006.0314289.0006943.0685294-.0117187.0839843-.012413.0154596-.0334621.1206017-.0488281.2324219s-.037165.2121864-.046875.2246094c-.009675.0124246-.0351117.1403215-.0566406.2832031-.021528.1428816-.0455576.268827-.0546876.28125-.0091649.0124246-.0297318.1092359-.0449218.2148438s-.0375042.2107919-.0488282.2324218c-.0113229.02163-.0304967.1074364-.0429687.1914063-.012472.0839789-.0293594.1954169-.0371094.2480469-.009283.0627029-.002979.1084494.015625.1308594.0162874.0196299.0637183.0332031.1132813.0332031.0681526 0 .0939315-.0115776.1171875-.0546875.0162083-.030043.0850699-.1642473.1542969-.2988282.1331949-.2589327.1827438-.3507106.2011718-.3691406.0062095-.006212.0518626-.0975171.1015625-.203125.0496976-.1056072.0973357-.196945.1035157-.203125.0183071-.0183072.0676671-.1094494.1972656-.3613281.0671233-.130458.1907287-.3697315.2753906-.53125.0846592-.1615174.1926044-.3697017.2402344-.4628906.047633-.0931833.110746-.2088486.140625-.2578125.0498444-.081685.1193821-.2153047.46875-.8945313.0669961-.1302597.1230468-.2479127.1230468-.2617187.0000001-.013806-.0190066-.0406279-.0410156-.0605469-.033907-.030694-.1236887-.0371788-.5859375-.0429687-.3000178-.003749-.5507437-.0135344-.5585937-.0214844-.017467-.0175143.0327666-.4058151.0566406-.4375.009361-.0124246.0300559-.1037291.0449219-.203125.014866-.0993966.0332587-.190702.0429687-.203125.009666-.0124246.0367318-.1458279.0585938-.2949219.021862-.1490939.0478387-.2811939.0585937-.2949219.010754-.0137258.0311059-.1105369.0449219-.2148437.013826-.1043077.0333488-.2004677.0429688-.2128907.0096059-.0124245.0244731-.0659276.0332031-.1191406.022819-.1383216-.0294504-.212645-.140625-.203125zm6.6347661 1.2148438c-.366524 0-.658633.1283466-.97461.4238281-.115468.1079796-.248119.2296344-.292969.2714844l-.080078.0761719-.279297-.2597657c-.4160276-.3872872-.607391-.4849588-.9863278-.5058593-.2623977-.0144734-.4423474.0194451-.6601562.125-.198807.0963469-.4534115.335654-.5488281.515625-.1737734.3277616-.1739598.7770874 0 1.1035156.0772998.1450492.2769685.3441957 1.3613281 1.3691406.217428.2055148.551561.5243678.744141.7070312.192578.1826615.364036.3294719.378906.3261719.014875-.003303.100666-.0770456.191406-.1640625.090734-.0870191.357684-.3410885.59375-.5644531.236066-.2233647.515486-.4891313.621094-.5898437s.353942-.3384916.552734-.5273438c.499589-.4746075.614512-.657379.638672-1.0292969.02269-.3492324-.096619-.6589197-.349609-.9082031-.239329-.2358187-.567036-.3691406-.910156-.3691406z"/></svg>

<?xml version="1.0" encoding="UTF-8" standalone="no"?>
<svg
   height="16"
   viewBox="0 0 16 16"
   width="16"
   xmlns="http://www.w3.org/2000/svg">
  <defs
     id="defs1" />
  <path
     class="error"
     d="m 7.949686,6.6062267 c -2.4929549,0 -4.5102213,2.0871718 -4.5102213,4.6665163 0,2.579345 2.0172664,4.666516 4.5102213,4.666516 2.492955,0 4.510222,-2.087171 4.510222,-4.666516 0,-2.5793445 -2.017267,-4.6665163 -4.510222,-4.6665163 z M 5.6945754,10.106113 h 4.5102216 c 0.625441,0 1.127555,0.519514 1.127555,1.16663 0,0.647115 -0.502114,1.166628 -1.127555,1.166628 H 5.6945754 c -0.6254415,0 -1.1275554,-0.519513 -1.1275554,-1.166628 0,-0.647116 0.5021139,-1.16663 1.1275554,-1.16663 z m 0,0"
     fill="#e01b24"
     id="path2"
     style="display:inline;stroke-width:1.14693"/>
  <path
     id="path1"
     style="display:inline"
     d="M 1.5546875 0.1171875 L 1.3847656 0.16992188 C 1.0966533 0.25988379 0.91786152 0.36860576 0.703125 0.58203125 C 0.53909452 0.74505889 0.49319847 0.80863623 0.40625 0.98828125 C 0.22229428 1.3683542 0.23205195 1.1273351 0.23242188 4.8378906 C 0.23274568 8.062309 0.23310904 8.1408224 0.27734375 8.3164062 C 0.33438767 8.542818 0.40847745 8.7025507 0.53710938 8.8828125 C 0.73833899 9.1648102 1.0453663 9.3805677 1.3847656 9.4785156 C 1.4693112 9.5029143 2.0371999 9.5126427 3.34375 9.5175781 A 4.9622278 4.9622278 0 0 1 3.8691406 8.4785156 C 2.6190499 8.4746288 1.7003951 8.4691064 1.6640625 8.4609375 C 1.5425544 8.4336145 1.3895134 8.3007621 1.3359375 8.1757812 C 1.2946835 8.0795713 1.2949219 7.9647786 1.2949219 4.828125 C 1.2949219 1.6914716 1.2946955 1.5747265 1.3359375 1.4785156 C 1.3869035 1.3596176 1.5311782 1.2296653 1.6523438 1.1933594 C 1.766824 1.1590164 13.347494 1.1571803 13.470703 1.1914062 C 13.515 1.2037108 13.594164 1.2501379 13.646484 1.2949219 C 13.819362 1.4429021 13.818121 1.4349977 13.832031 2.1953125 C 13.843701 2.8340791 13.848261 2.878367 13.894531 2.9667969 C 13.921528 3.0183997 13.981084 3.0927284 14.027344 3.1308594 C 14.160361 3.2405035 14.277025 3.2695312 14.591797 3.2695312 L 14.871094 3.2695312 L 14.871094 4.828125 L 14.871094 6.3867188 L 14.570312 6.3867188 C 14.318214 6.3871307 14.255542 6.3948348 14.169922 6.4335938 C 14.04385 6.4906622 13.954398 6.5738468 13.892578 6.6914062 C 13.848288 6.7756377 13.843721 6.8276141 13.832031 7.4609375 L 13.820312 8.140625 L 13.759766 8.2324219 C 13.678685 8.3548738 13.571119 8.4343607 13.447266 8.4628906 C 13.421009 8.4689356 12.858883 8.4730206 12.101562 8.4765625 A 4.9622278 4.9622278 0 0 1 12.634766 9.5195312 C 13.48938 9.5143839 13.641472 9.5052071 13.724609 9.4824219 C 14.157313 9.363851 14.526751 9.0638674 14.722656 8.6738281 C 14.85051 8.4192904 14.874099 8.2999466 14.886719 7.859375 L 14.898438 7.4472656 L 15.199219 7.4472656 C 15.452106 7.4472656 15.517375 7.4396906 15.609375 7.4003906 C 15.746011 7.3420277 15.832872 7.2606158 15.888672 7.1386719 C 15.930432 7.047279 15.931641 6.9650062 15.931641 4.828125 C 15.931641 2.3837219 15.939665 2.5273524 15.789062 2.3691406 C 15.661549 2.2351875 15.563285 2.2070312 15.207031 2.2070312 L 14.892578 2.2070312 L 14.892578 1.8964844 C 14.89203 1.5163407 14.864969 1.322881 14.787109 1.1269531 C 14.597112 0.64883173 14.221478 0.31119657 13.707031 0.15820312 C 13.578434 0.11995316 13.263683 0.1171875 7.5625 0.1171875 L 1.5546875 0.1171875 z M 5.3886719 1.5566406 C 5.3355664 1.5611836 5.2990601 1.579771 5.2832031 1.609375 C 5.2698871 1.6342242 5.2357722 1.6913283 5.2070312 1.7382812 C 5.1507753 1.8301841 5.1157756 1.8944257 5 2.1054688 C 4.959106 2.1800173 4.9122924 2.2567566 4.8964844 2.2753906 C 4.8806764 2.2940323 4.8505081 2.3451829 4.8300781 2.3886719 C 4.8096501 2.4321579 4.7647336 2.5179552 4.7285156 2.5800781 C 4.6922998 2.642201 4.6412183 2.7335032 4.6152344 2.7832031 C 4.5892511 2.8329014 4.537209 2.9237631 4.5 2.984375 C 4.462788 3.0449818 4.3959145 3.1618627 4.3515625 3.2441406 C 4.3071997 3.3264144 4.2519186 3.420145 4.2285156 3.453125 C 4.2051126 3.486105 4.1855469 3.5192938 4.1855469 3.5273438 C 4.1855469 3.5353409 4.1519911 3.5955213 4.1113281 3.6601562 C 4.0706635 3.7247882 4.0237775 3.8029184 4.0078125 3.8339844 C 3.9918475 3.8650458 3.9500745 3.9417833 3.9140625 4.0039062 C 3.8780507 4.0660291 3.8292386 4.1518235 3.8066406 4.1953125 C 3.7840428 4.2387985 3.7361237 4.3190881 3.6992188 4.375 C 3.6623126 4.4309096 3.6116565 4.5186594 3.5859375 4.5683594 C 3.560211 4.6180576 3.5118686 4.7086643 3.4785156 4.7695312 C 3.4052457 4.9032305 3.4045169 4.9122227 3.4667969 4.9785156 C 3.5154206 5.0302707 3.5206461 5.03125 4.0429688 5.03125 C 4.4931095 5.03125 4.5727984 5.0353002 4.5839844 5.0644531 C 4.5911744 5.0832441 4.5863867 5.1115771 4.5742188 5.1269531 C 4.5620518 5.1423254 4.5410116 5.2390679 4.5253906 5.3417969 C 4.5097686 5.444524 4.4877356 5.5333725 4.4785156 5.5390625 C 4.4692956 5.5447535 4.4666663 5.5759929 4.4726562 5.6074219 C 4.4786622 5.6388508 4.4733505 5.6759513 4.4609375 5.6914062 C 4.4485245 5.7068658 4.4274754 5.8120079 4.4121094 5.9238281 C 4.3967434 6.0356483 4.3749444 6.1360145 4.3652344 6.1484375 C 4.3555594 6.1608621 4.3301227 6.288759 4.3085938 6.4316406 C 4.2870658 6.5745222 4.2630362 6.7004676 4.2539062 6.7128906 C 4.2447413 6.7253152 4.2241744 6.8221265 4.2089844 6.9277344 C 4.1937944 7.0333423 4.1714802 7.1385263 4.1601562 7.1601562 C 4.1488333 7.1817862 4.1296595 7.2675926 4.1171875 7.3515625 C 4.1047155 7.4355414 4.0878281 7.5469794 4.0800781 7.5996094 C 4.0707951 7.6623123 4.0770991 7.7080588 4.0957031 7.7304688 C 4.1119905 7.7500987 4.1594214 7.7636719 4.2089844 7.7636719 C 4.277137 7.7636719 4.3029159 7.7520943 4.3261719 7.7089844 C 4.3423802 7.6789414 4.4112418 7.5447371 4.4804688 7.4101562 C 4.6136637 7.1512235 4.6632126 7.0594456 4.6816406 7.0410156 C 4.6878501 7.0348036 4.7335032 6.9434985 4.7832031 6.8378906 C 4.8329007 6.7322834 4.8805388 6.6409456 4.8867188 6.6347656 C 4.9050259 6.6164584 4.9543859 6.5253162 5.0839844 6.2734375 C 5.1511077 6.1429795 5.2747131 5.903706 5.359375 5.7421875 C 5.4440342 5.5806701 5.5519794 5.3724858 5.5996094 5.2792969 C 5.6472424 5.1861136 5.7103554 5.0704483 5.7402344 5.0214844 C 5.7900788 4.9397994 5.8596165 4.8061797 6.2089844 4.1269531 C 6.2759805 3.9966934 6.3320312 3.8790404 6.3320312 3.8652344 C 6.3320313 3.8514284 6.3130246 3.8246065 6.2910156 3.8046875 C 6.2571086 3.7739935 6.1673269 3.7675087 5.7050781 3.7617188 C 5.4050603 3.7579698 5.1543344 3.7481844 5.1464844 3.7402344 C 5.1290174 3.7227201 5.179251 3.3344193 5.203125 3.3027344 C 5.212486 3.2903098 5.2331809 3.1990053 5.2480469 3.0996094 C 5.2629129 3.0002128 5.2813056 2.9089074 5.2910156 2.8964844 C 5.3006816 2.8840598 5.3277474 2.7506565 5.3496094 2.6015625 C 5.3714714 2.4524686 5.3974481 2.3203686 5.4082031 2.3066406 C 5.4189571 2.2929148 5.439309 2.1961037 5.453125 2.0917969 C 5.466951 1.9874892 5.4864738 1.8913292 5.4960938 1.8789062 C 5.5056997 1.8664817 5.5205669 1.8129786 5.5292969 1.7597656 C 5.5521159 1.621444 5.4998465 1.5471206 5.3886719 1.5566406 z M 12.023438 2.7714844 C 11.656914 2.7714844 11.364805 2.899831 11.048828 3.1953125 C 10.93336 3.3032921 10.800709 3.4249469 10.755859 3.4667969 L 10.675781 3.5429688 L 10.396484 3.2832031 C 9.9804564 2.8959159 9.789093 2.7982443 9.4101562 2.7773438 C 9.1477585 2.7628704 8.9678088 2.7967889 8.75 2.9023438 C 8.551193 2.9986907 8.2965885 3.2379978 8.2011719 3.4179688 C 8.0273985 3.7457304 8.0272121 4.1950562 8.2011719 4.5214844 C 8.2784717 4.6665336 8.4781404 4.8656801 9.5625 5.890625 C 9.779928 6.0961398 10.114061 6.4149928 10.306641 6.5976562 C 10.499219 6.7803177 10.670677 6.9271281 10.685547 6.9238281 C 10.700422 6.9205251 10.786213 6.8467825 10.876953 6.7597656 C 10.967687 6.6727465 11.234637 6.4186771 11.470703 6.1953125 C 11.706769 5.9719478 11.986189 5.7061812 12.091797 5.6054688 C 12.197405 5.5047564 12.445739 5.2669772 12.644531 5.078125 C 13.14412 4.6035175 13.259043 4.420746 13.283203 4.0488281 C 13.305893 3.6995957 13.186584 3.3899084 12.933594 3.140625 C 12.694265 2.9048063 12.366558 2.7714844 12.023438 2.7714844 z " />
</svg>
